rospo-icon-theme-classic-common/22x22/apps/phoronix-test-suite.svg

<svg height="22" width="22" xmlns="http://www.w3.org/2000/svg"><path d="m3 1.5c-1.108 0-2 .892-2 2v10 6c0 1.108.892 2 2 2s2-.892 2-2v-4h14c1.108 0 2-.892 2-2v-10c0-1.108-.892-2-2-2z" opacity=".2"/><path d="m3 1c-1.108 0-2 .892-2 2v10 6c0 1.108.892 2 2 2s2-.892 2-2v-4h14c1.108 0 2-.892 2-2v-10c0-1.108-.892-2-2-2z" fill="#7cb320"/><path d="m6.923828 4.5c-1.065876 0-1.923828.843-1.923828 1.890625v1.109375h-1.5l2.5 2 2.5-2h-1.5v-1h7 1 2v-.109375c0-1.047625-.857952-1.890625-1.923828-1.890625zm9.076172 3-2.5 2h1.5v1h-7-1-2v .109375c0 1.047625.857952 1.890625 1.923828 1.890625h8.152344c1.065876 0 1.923828-.843 1.923828-1.890625v-1.109375h1.5z" opacity=".2"/><path d="m6.923828 4c-1.065876 0-1.923828.843-1.923828 1.890625v1.109375h-1.5l2.5 2 2.5-2h-1.5v-1h7 1 2v-.109375c0-1.047625-.857952-1.890625-1.923828-1.890625zm9.076172 3-2.5 2h1.5v1h-7-1-2v .109375c0 1.047625.857952 1.890625 1.923828 1.890625h8.152344c1.065876 0 1.923828-.843 1.923828-1.890625v-1.109375h1.5z" fill="#fff"/><circle cx="11" cy="8" fill="#3f3f3f" r="1"/><path d="m3 1c-1.108 0-2 .892-2 2v .5c0-1.108.892-2 2-2h16c1.108 0 2 .892 2 2v-.5c0-1.108-.892-2-2-2z" fill="#fff" opacity=".2"/></svg>

<svg xmlns="http://www.w3.org/2000/svg" width="22" height="22" version="1">
 <path style="opacity:0.2" d="m 3,1.5 c -1.108,0 -2,0.892 -2,2 l 0,10 0,6 c 0,1.108 0.892,2 2,2 1.108,0 2,-0.892 2,-2 l 0,-4 14,0 c 1.108,0 2,-0.892 2,-2 l 0,-10 c 0,-1.108 -0.892,-2 -2,-2 l -16,0 z"/>
 <path style="fill:#7cb320" d="M 3,1 C 1.892,1 1,1.892 1,3 l 0,10 0,6 c 0,1.108 0.892,2 2,2 1.108,0 2,-0.892 2,-2 l 0,-4 14,0 c 1.108,0 2,-0.892 2,-2 L 21,3 C 21,1.892 20.108,1 19,1 L 3,1 Z"/>
 <path style="opacity:0.2" d="M 6.923828,4.5 C 5.857952,4.5 5,5.343 5,6.390625 L 5,7.5 l -1.5,0 2.5,2 2.5,-2 -1.5,0 0,-1 7,0 1,0 2,0 0,-0.109375 C 17,5.343 16.142048,4.5 15.076172,4.5 Z M 16,7.5 l -2.5,2 1.5,0 0,1 -7,0 -1,0 -2,0 0,0.109375 C 5,11.657 5.857952,12.5 6.923828,12.5 l 8.152344,0 C 16.142048,12.5 17,11.657 17,10.609375 L 17,9.5 l 1.5,0 z"/>
 <path style="fill:#ffffff" d="M 6.923828,4 C 5.857952,4 5,4.843 5,5.890625 L 5,7 3.5,7 6,9 8.5,7 7,7 7,6 l 7,0 1,0 2,0 0,-0.109375 C 17,4.843 16.142048,4 15.076172,4 Z M 16,7 13.5,9 15,9 l 0,1 -7,0 -1,0 -2,0 0,0.109375 C 5,11.157 5.857952,12 6.923828,12 l 8.152344,0 C 16.142048,12 17,11.157 17,10.109375 L 17,9 18.5,9 Z"/>
 <circle style="fill:#3f3f3f" cx="11" cy="8" r="1"/>
 <path style="opacity:0.2;fill:#ffffff" d="M 3,1 C 1.892,1 1,1.892 1,3 l 0,0.5 c 0,-1.108 0.892,-2 2,-2 l 16,0 c 1.108,0 2,0.892 2,2 L 21,3 C 21,1.892 20.108,1 19,1 L 3,1 Z"/>
</svg>
